X:184
T:Morning Dew
T:Hare in the Heather
R:reel
H:Often played with part 2 as the first part, see #737
H:Also played as a 4-part reel, with the first part of the variation as 4t
H:part.
D:Paddy Glackin: Ceol ar an bhFidil le Paddy Glackin.
D:Matt Molloy: Heathery Breeze.
Z:id:hn-reel-81
M:C|
K:Edor
B2EB GBEB|~B2EB ADFA|1 B2EB GBEB|BcdB ADFA:|2 BAGF EFGA|BcdB ADFA||
|:~E3B BAFD|~E3B ADFD|~E3B BAFA|BcdB ADFA:|
|:B2eB fBeB|~B2dB ADFA|1 B2eB fBeB|dcdB ADFA:|2 (3Bcd eg fdec|dcdB ADFA|
|
"Variations:"
BEGF EFGA|BEGB ADFA|1 BEGF EFGA|BAdB ADFA:|2 BAGF EFGA|BAdB ADFD||
|:~E3B BAFA|EBGB ADFD|~E3B BA (3FGA|1 BAdB ADFD:|2 BAdB ADFA||
|:B2eB fBeB|~B2dB ADFA|1 Bdeg fdec|dcdB ADFA:|2 (3Bcd eg fdec|dcdB ADFA|
|
